src/images/social/email.svg

<svg height="100" viewBox="0 0 100 100" width="100" xmlns="http://www.w3.org/2000/svg"><path d="m99.74 4.35c-.4469612-.3903713-1.0820455-.48053759-1.62-.23l-97 45.07c-.52434333.2449092-.85944469.7712803-.85944469 1.35s.33510136 1.1050908.85944469 1.35l27.42 13.47c.5019244.2483097 1.1006918.1942275 1.55-.14l26.69-20-21 21.55c-.3027929.3330639-.4387891.7851594-.37 1.23l2.09 27.15c.0433119.6031864.4469059 1.120368 1.0214832 1.3089697.5745774.1886017 1.2061607.0112112 1.5985168-.4489697l14.57-16.89 18 8.61c.3905026.1882803.8436435.1971488 1.2412139.0242921.3975705-.1728568.7001427-.5102962.8287861-.9242921l25.4-80.91c.182858-.56034018.018211-1.17580556-.42-1.57z" fill="#1b1b1b"/></svg>

<?xml version="1.0" encoding="UTF-8"?>
<svg width="100px" height="100px" viewBox="0 0 100 100" version="1.1" xmlns="http://www.w3.org/2000/svg" xmlns:xlink="http://www.w3.org/1999/xlink">
    <!-- Generator: Sketch 55.1 (78136) - https://sketchapp.com -->
    <title>x copy 2</title>
    <desc>Created with Sketch.</desc>
    <g id="x-copy-2" stroke="none" stroke-width="1" fill="none" fill-rule="evenodd">
        <path d="M99.74,4.35 C99.2930388,3.9596287 98.6579545,3.86946241 98.12,4.12 L1.12,49.19 C0.595656672,49.4349092 0.260555311,49.9612803 0.260555311,50.54 C0.260555311,51.1187197 0.595656672,51.6450908 1.12,51.89 L28.54,65.36 C29.0419244,65.6083097 29.6406918,65.5542275 30.09,65.22 L56.78,45.22 L35.78,66.77 C35.4772071,67.1030639 35.3412109,67.5551594 35.41,68 L37.5,95.15 C37.5433119,95.7531864 37.9469059,96.270368 38.5214832,96.4589697 C39.0960606,96.6475714 39.7276439,96.4701809 40.12,96.01 L54.69,79.12 L72.69,87.73 C73.0805026,87.9182803 73.5336435,87.9271488 73.9312139,87.7542921 C74.3287844,87.5814353 74.6313566,87.2439959 74.76,86.83 L100.16,5.92 C100.342858,5.35965982 100.178211,4.74419444 99.74,4.35 L99.74,4.35 Z" id="Path" fill="#1B1B1B" fill-rule="nonzero"></path>
    </g>
</svg>
